images/Vector.svg

<svg width="38" height="38" viewBox="0 0 38 38" fill="none" xmlns="http://www.w3.org/2000/svg">
<path d="M34 12.3333C34.884 12.3333 35.7319 12.6845 36.357 13.3096C36.9821 13.9348 37.3333 14.7826 37.3333 15.6667V22.3333C37.3333 23.2174 36.9821 24.0652 36.357 24.6904C35.7319 25.3155 34.884 25.6667 34 25.6667H32.23C31.8237 28.8888 30.2554 31.852 27.8196 34C25.3837 36.148 22.2477 37.3333 19 37.3333V34C21.6522 34 24.1957 32.9464 26.0711 31.0711C27.9464 29.1957 29 26.6522 29 24V14C29 11.3478 27.9464 8.80429 26.0711 6.92893C24.1957 5.05357 21.6522 4 19 4C16.3478 4 13.8043 5.05357 11.9289 6.92893C10.0536 8.80429 8.99999 11.3478 8.99999 14V25.6667H3.99999C3.11593 25.6667 2.26809 25.3155 1.64297 24.6904C1.01785 24.0652 0.666656 23.2174 0.666656 22.3333V15.6667C0.666656 14.7826 1.01785 13.9348 1.64297 13.3096C2.26809 12.6845 3.11593 12.3333 3.99999 12.3333H5.76999C6.17671 9.11149 7.74512 6.14878 10.1809 4.00112C12.6168 1.85346 15.7526 0.668457 19 0.668457C22.2474 0.668457 25.3832 1.85346 27.819 4.00112C30.2549 6.14878 31.8233 9.11149 32.23 12.3333H34ZM11.9333 25.3083L13.7 22.4817C15.2884 23.4767 17.1256 24.003 19 24C20.8744 24.003 22.7115 23.4767 24.3 22.4817L26.0667 25.3083C23.9488 26.6352 21.4992 27.3372 19 27.3333C16.5008 27.3372 14.0512 26.6352 11.9333 25.3083Z" fill="#F9995D"/>
</svg>

<svg width="38" height="38" fill="none" xmlns="http://www.w3.org/2000/svg"><path d="M34 12.333a3.333 3.333 0 013.333 3.334v6.666A3.334 3.334 0 0134 25.667h-1.77A13.335 13.335 0 0119 37.333V34a10 10 0 0010-10V14a10 10 0 00-20 0v11.667H4a3.333 3.333 0 01-3.333-3.334v-6.666A3.334 3.334 0 014 12.333h1.77a13.335 13.335 0 0126.46 0H34zM11.933 25.308l1.767-2.826A9.954 9.954 0 0019 24a9.954 9.954 0 005.3-1.518l1.767 2.826A13.271 13.271 0 0119 27.333c-2.5.004-4.949-.698-7.067-2.025z" fill="#F9995D"/></svg>
